images/50368408.svg

<?xml version="1.0" encoding="UTF-8"?>
<svg xmlns="http://www.w3.org/2000/svg" xmlns:xlink="http://www.w3.org/1999/xlink" width="300pt" height="300pt" viewBox="0 0 300 300" version="1.1">
<defs>
<g>
<symbol overflow="visible" id="glyph0-0">
<path style="stroke:none;" d="M 0.59375 2.125 L 0.59375 -8.46875 L 6.59375 -8.46875 L 6.59375 2.125 Z M 1.265625 1.453125 L 5.9375 1.453125 L 5.9375 -7.78125 L 1.265625 -7.78125 Z M 1.265625 1.453125 "/>
</symbol>
<symbol overflow="visible" id="glyph0-1">
<path style="stroke:none;" d="M 4.734375 -7.953125 C 3.867188 -7.953125 3.179688 -7.628906 2.671875 -6.984375 C 2.171875 -6.347656 1.921875 -5.472656 1.921875 -4.359375 C 1.921875 -3.265625 2.171875 -2.394531 2.671875 -1.75 C 3.179688 -1.113281 3.867188 -0.796875 4.734375 -0.796875 C 5.585938 -0.796875 6.265625 -1.113281 6.765625 -1.75 C 7.273438 -2.394531 7.53125 -3.265625 7.53125 -4.359375 C 7.53125 -5.472656 7.273438 -6.347656 6.765625 -6.984375 C 6.265625 -7.628906 5.585938 -7.953125 4.734375 -7.953125 Z M 4.734375 -8.90625 C 5.953125 -8.90625 6.925781 -8.492188 7.65625 -7.671875 C 8.394531 -6.847656 8.765625 -5.742188 8.765625 -4.359375 C 8.765625 -2.984375 8.394531 -1.882812 7.65625 -1.0625 C 6.925781 -0.238281 5.953125 0.171875 4.734375 0.171875 C 3.503906 0.171875 2.519531 -0.238281 1.78125 -1.0625 C 1.039062 -1.882812 0.671875 -2.984375 0.671875 -4.359375 C 0.671875 -5.742188 1.039062 -6.847656 1.78125 -7.671875 C 2.519531 -8.492188 3.503906 -8.90625 4.734375 -8.90625 Z M 4.734375 -8.90625 "/>
</symbol>
<symbol overflow="visible" id="glyph0-2">
<path style="stroke:none;" d="M 1.171875 -8.75 L 2.359375 -8.75 L 2.359375 -5.15625 L 6.65625 -5.15625 L 6.65625 -8.75 L 7.84375 -8.75 L 7.84375 0 L 6.65625 0 L 6.65625 -4.171875 L 2.359375 -4.171875 L 2.359375 0 L 1.171875 0 Z M 1.171875 -8.75 "/>
</symbol>
</g>
</defs>
<g id="surface11761">
<rect x="0" y="0" width="300" height="300" style="fill:rgb(100%,100%,100%);fill-opacity:1;stroke:none;"/>
<path style="fill:none;stroke-width:1.2;stroke-linecap:butt;stroke-linejoin:miter;stroke:rgb(100%,0%,0%);stroke-opacity:1;stroke-miterlimit:10;" d="M 171.269531 131.652344 L 186.148438 132.867188 "/>
<path style="fill:none;stroke-width:1.2;stroke-linecap:butt;stroke-linejoin:miter;stroke:rgb(0%,0%,0%);stroke-opacity:1;stroke-miterlimit:10;" d="M 186.148438 132.867188 L 201.027344 134.082031 "/>
<path style="fill:none;stroke-width:1.2;stroke-linecap:butt;stroke-linejoin:miter;stroke:rgb(0%,0%,0%);stroke-opacity:1;stroke-miterlimit:10;" d="M 154.289062 156.214844 L 162.777344 143.933594 "/>
<path style="fill:none;stroke-width:1.2;stroke-linecap:butt;stroke-linejoin:miter;stroke:rgb(100%,0%,0%);stroke-opacity:1;stroke-miterlimit:10;" d="M 162.777344 143.933594 L 171.269531 131.652344 "/>
<path style=" stroke:none;fill-rule:nonzero;fill:rgb(100%,100%,100%);fill-opacity:1;" d="M 166.269531 124.652344 L 176.269531 124.652344 L 176.269531 138.652344 L 166.269531 138.652344 Z M 166.269531 124.652344 "/>
<g style="fill:rgb(100%,0%,0%);fill-opacity:1;">
  <use xlink:href="#glyph0-1" x="166.269531" y="135.791016"/>
</g>
<path style="fill:none;stroke-width:1.2;stroke-linecap:butt;stroke-linejoin:miter;stroke:rgb(0%,0%,0%);stroke-opacity:1;stroke-miterlimit:10;" d="M 201.027344 134.082031 L 213.804688 161.066406 "/>
<path style="fill:none;stroke-width:1.2;stroke-linecap:butt;stroke-linejoin:miter;stroke:rgb(0%,0%,0%);stroke-opacity:1;stroke-miterlimit:10;" d="M 208.65625 133.773438 L 218.878906 155.359375 "/>
<path style="fill:none;stroke-width:1.2;stroke-linecap:butt;stroke-linejoin:miter;stroke:rgb(0%,0%,0%);stroke-opacity:1;stroke-miterlimit:10;" d="M 218.007812 109.519531 L 201.027344 134.082031 "/>
<path style="fill:none;stroke-width:1.2;stroke-linecap:butt;stroke-linejoin:miter;stroke:rgb(0%,0%,0%);stroke-opacity:1;stroke-miterlimit:10;" d="M 213.804688 161.066406 L 196.824219 185.625 "/>
<path style="fill:none;stroke-width:1.2;stroke-linecap:butt;stroke-linejoin:miter;stroke:rgb(0%,0%,0%);stroke-opacity:1;stroke-miterlimit:10;" d="M 213.804688 161.066406 L 243.566406 163.492188 "/>
<path style="fill:none;stroke-width:1.2;stroke-linecap:butt;stroke-linejoin:miter;stroke:rgb(0%,0%,0%);stroke-opacity:1;stroke-miterlimit:10;" d="M 193.652344 187.128906 L 200.039062 200.621094 "/>
<path style="fill:none;stroke-width:1.2;stroke-linecap:butt;stroke-linejoin:miter;stroke:rgb(100%,0%,0%);stroke-opacity:1;stroke-miterlimit:10;" d="M 200.039062 200.621094 L 206.429688 214.113281 "/>
<path style="fill:none;stroke-width:1.2;stroke-linecap:butt;stroke-linejoin:miter;stroke:rgb(0%,0%,0%);stroke-opacity:1;stroke-miterlimit:10;" d="M 200 184.121094 L 206.390625 197.613281 "/>
<path style="fill:none;stroke-width:1.2;stroke-linecap:butt;stroke-linejoin:miter;stroke:rgb(100%,0%,0%);stroke-opacity:1;stroke-miterlimit:10;" d="M 206.390625 197.613281 L 212.777344 211.109375 "/>
<path style="fill:none;stroke-width:1.2;stroke-linecap:butt;stroke-linejoin:miter;stroke:rgb(0%,0%,0%);stroke-opacity:1;stroke-miterlimit:10;" d="M 196.824219 185.625 L 167.066406 183.199219 "/>
<path style=" stroke:none;fill-rule:nonzero;fill:rgb(100%,100%,100%);fill-opacity:1;" d="M 204.605469 205.609375 L 214.605469 205.609375 L 214.605469 219.609375 L 204.605469 219.609375 Z M 204.605469 205.609375 "/>
<g style="fill:rgb(100%,0%,0%);fill-opacity:1;">
  <use xlink:href="#glyph0-1" x="204.605469" y="216.748047"/>
</g>
<path style="fill:none;stroke-width:1.2;stroke-linecap:butt;stroke-linejoin:miter;stroke:rgb(0%,0%,0%);stroke-opacity:1;stroke-miterlimit:10;" d="M 167.066406 183.199219 L 158.574219 195.476562 "/>
<path style="fill:none;stroke-width:1.2;stroke-linecap:butt;stroke-linejoin:miter;stroke:rgb(100%,0%,0%);stroke-opacity:1;stroke-miterlimit:10;" d="M 158.574219 195.476562 L 150.085938 207.757812 "/>
<path style="fill:none;stroke-width:1.2;stroke-linecap:butt;stroke-linejoin:miter;stroke:rgb(0%,0%,0%);stroke-opacity:1;stroke-miterlimit:10;" d="M 167.066406 183.199219 L 154.289062 156.214844 "/>
<path style="fill:none;stroke-width:1.2;stroke-linecap:butt;stroke-linejoin:miter;stroke:rgb(0%,0%,0%);stroke-opacity:1;stroke-miterlimit:10;" d="M 172.136719 177.492188 L 161.914062 155.90625 "/>
<path style=" stroke:none;fill-rule:nonzero;fill:rgb(100%,100%,100%);fill-opacity:1;" d="M 131.085938 200.757812 L 150.085938 200.757812 L 150.085938 214.757812 L 131.085938 214.757812 Z M 131.085938 200.757812 "/>
<g style="fill:rgb(100%,0%,0%);fill-opacity:1;">
  <use xlink:href="#glyph0-2" x="131.085938" y="211.896484"/>
  <use xlink:href="#glyph0-1" x="140.109375" y="211.896484"/>
</g>
<path style="fill:none;stroke-width:1.2;stroke-linecap:butt;stroke-linejoin:miter;stroke:rgb(0%,0%,0%);stroke-opacity:1;stroke-miterlimit:10;" d="M 154.289062 156.214844 L 124.527344 153.785156 "/>
<path style="fill:none;stroke-width:1.2;stroke-linecap:butt;stroke-linejoin:miter;stroke:rgb(0%,0%,0%);stroke-opacity:1;stroke-miterlimit:10;" d="M 124.527344 153.785156 L 111.75 126.800781 "/>
<path style="fill:none;stroke-width:1.2;stroke-linecap:butt;stroke-linejoin:miter;stroke:rgb(0%,0%,0%);stroke-opacity:1;stroke-miterlimit:10;" d="M 116.902344 154.09375 L 106.679688 132.507812 "/>
<path style="fill:none;stroke-width:1.2;stroke-linecap:butt;stroke-linejoin:miter;stroke:rgb(0%,0%,0%);stroke-opacity:1;stroke-miterlimit:10;" d="M 107.546875 178.347656 L 124.527344 153.785156 "/>
<path style="fill:none;stroke-width:1.2;stroke-linecap:butt;stroke-linejoin:miter;stroke:rgb(0%,0%,0%);stroke-opacity:1;stroke-miterlimit:10;" d="M 111.75 126.800781 L 81.992188 124.375 "/>
<path style="fill:none;stroke-width:1.2;stroke-linecap:butt;stroke-linejoin:miter;stroke:rgb(0%,0%,0%);stroke-opacity:1;stroke-miterlimit:10;" d="M 81.992188 124.375 L 75.601562 110.882812 "/>
<path style="fill:none;stroke-width:1.2;stroke-linecap:butt;stroke-linejoin:miter;stroke:rgb(100%,0%,0%);stroke-opacity:1;stroke-miterlimit:10;" d="M 75.601562 110.882812 L 69.210938 97.390625 "/>
<path style="fill:none;stroke-width:1.2;stroke-linecap:butt;stroke-linejoin:miter;stroke:rgb(0%,0%,0%);stroke-opacity:1;stroke-miterlimit:10;" d="M 81.992188 124.375 L 65.007812 148.933594 "/>
<path style="fill:none;stroke-width:1.2;stroke-linecap:butt;stroke-linejoin:miter;stroke:rgb(0%,0%,0%);stroke-opacity:1;stroke-miterlimit:10;" d="M 86.070312 130.824219 L 72.484375 150.472656 "/>
<path style=" stroke:none;fill-rule:nonzero;fill:rgb(100%,100%,100%);fill-opacity:1;" d="M 50.210938 90.390625 L 69.210938 90.390625 L 69.210938 104.390625 L 50.210938 104.390625 Z M 50.210938 90.390625 "/>
<g style="fill:rgb(100%,0%,0%);fill-opacity:1;">
  <use xlink:href="#glyph0-2" x="50.210938" y="101.529297"/>
  <use xlink:href="#glyph0-1" x="59.234375" y="101.529297"/>
</g>
<path style="fill:none;stroke-width:1.2;stroke-linecap:butt;stroke-linejoin:miter;stroke:rgb(0%,0%,0%);stroke-opacity:1;stroke-miterlimit:10;" d="M 65.007812 148.933594 L 50.128906 147.71875 "/>
<path style="fill:none;stroke-width:1.2;stroke-linecap:butt;stroke-linejoin:miter;stroke:rgb(100%,0%,0%);stroke-opacity:1;stroke-miterlimit:10;" d="M 50.128906 147.71875 L 35.25 146.507812 "/>
<path style="fill:none;stroke-width:1.2;stroke-linecap:butt;stroke-linejoin:miter;stroke:rgb(0%,0%,0%);stroke-opacity:1;stroke-miterlimit:10;" d="M 65.007812 148.933594 L 77.789062 175.917969 "/>
<path style=" stroke:none;fill-rule:nonzero;fill:rgb(100%,100%,100%);fill-opacity:1;" d="M 16.25 139.507812 L 35.25 139.507812 L 35.25 153.507812 L 16.25 153.507812 Z M 16.25 139.507812 "/>
<g style="fill:rgb(100%,0%,0%);fill-opacity:1;">
  <use xlink:href="#glyph0-2" x="16.25" y="150.646484"/>
  <use xlink:href="#glyph0-1" x="25.273438" y="150.646484"/>
</g>
<path style="fill:none;stroke-width:1.2;stroke-linecap:butt;stroke-linejoin:miter;stroke:rgb(0%,0%,0%);stroke-opacity:1;stroke-miterlimit:10;" d="M 77.789062 175.917969 L 107.546875 178.347656 "/>
<path style="fill:none;stroke-width:1.2;stroke-linecap:butt;stroke-linejoin:miter;stroke:rgb(0%,0%,0%);stroke-opacity:1;stroke-miterlimit:10;" d="M 81.335938 169.160156 L 105.140625 171.101562 "/>
<path style="fill:none;stroke-width:1.2;stroke-linecap:butt;stroke-linejoin:miter;stroke:rgb(0%,0%,0%);stroke-opacity:1;stroke-miterlimit:10;" d="M 243.566406 163.492188 L 249.953125 176.984375 "/>
<path style="fill:none;stroke-width:1.2;stroke-linecap:butt;stroke-linejoin:miter;stroke:rgb(100%,0%,0%);stroke-opacity:1;stroke-miterlimit:10;" d="M 249.953125 176.984375 L 256.34375 190.480469 "/>
<path style="fill:none;stroke-width:1.2;stroke-linecap:butt;stroke-linejoin:miter;stroke:rgb(0%,0%,0%);stroke-opacity:1;stroke-miterlimit:10;" d="M 243.566406 163.492188 L 260.546875 138.933594 "/>
<path style="fill:none;stroke-width:1.2;stroke-linecap:butt;stroke-linejoin:miter;stroke:rgb(0%,0%,0%);stroke-opacity:1;stroke-miterlimit:10;" d="M 239.484375 157.042969 L 253.070312 137.394531 "/>
<path style=" stroke:none;fill-rule:nonzero;fill:rgb(100%,100%,100%);fill-opacity:1;" d="M 247.34375 183.480469 L 266.34375 183.480469 L 266.34375 197.480469 L 247.34375 197.480469 Z M 247.34375 183.480469 "/>
<g style="fill:rgb(100%,0%,0%);fill-opacity:1;">
  <use xlink:href="#glyph0-1" x="247.34375" y="194.619141"/>
  <use xlink:href="#glyph0-2" x="256.789062" y="194.619141"/>
</g>
<path style="fill:none;stroke-width:1.2;stroke-linecap:butt;stroke-linejoin:miter;stroke:rgb(0%,0%,0%);stroke-opacity:1;stroke-miterlimit:10;" d="M 260.546875 138.933594 L 247.769531 111.949219 "/>
<path style="fill:none;stroke-width:1.2;stroke-linecap:butt;stroke-linejoin:miter;stroke:rgb(0%,0%,0%);stroke-opacity:1;stroke-miterlimit:10;" d="M 247.769531 111.949219 L 256.257812 99.667969 "/>
<path style="fill:none;stroke-width:1.2;stroke-linecap:butt;stroke-linejoin:miter;stroke:rgb(100%,0%,0%);stroke-opacity:1;stroke-miterlimit:10;" d="M 256.257812 99.667969 L 264.75 87.390625 "/>
<path style="fill:none;stroke-width:1.2;stroke-linecap:butt;stroke-linejoin:miter;stroke:rgb(0%,0%,0%);stroke-opacity:1;stroke-miterlimit:10;" d="M 247.769531 111.949219 L 218.007812 109.519531 "/>
<path style="fill:none;stroke-width:1.2;stroke-linecap:butt;stroke-linejoin:miter;stroke:rgb(0%,0%,0%);stroke-opacity:1;stroke-miterlimit:10;" d="M 244.222656 118.707031 L 220.414062 116.765625 "/>
<path style=" stroke:none;fill-rule:nonzero;fill:rgb(100%,100%,100%);fill-opacity:1;" d="M 255.75 80.390625 L 274.75 80.390625 L 274.75 94.390625 L 255.75 94.390625 Z M 255.75 80.390625 "/>
<g style="fill:rgb(100%,0%,0%);fill-opacity:1;">
  <use xlink:href="#glyph0-1" x="255.75" y="91.529297"/>
  <use xlink:href="#glyph0-2" x="265.195312" y="91.529297"/>
</g>
</g>
</svg>

<svg xmlns="http://www.w3.org/2000/svg" xmlns:xlink="http://www.w3.org/1999/xlink" width="300pt" height="300pt" viewBox="0 0 300 300"><defs><symbol overflow="visible"><path d="M.594 2.125V-8.47h6V2.126zm.672-.672h4.671V-7.78h-4.67zm0 0"/></symbol><symbol overflow="visible" id="a"><path d="M4.734-7.953c-.867 0-1.554.324-2.062.97-.5.635-.75 1.51-.75 2.624 0 1.094.25 1.965.75 2.61.508.637 1.195.953 2.062.953.852 0 1.532-.316 2.032-.953.507-.645.765-1.516.765-2.61 0-1.113-.257-1.988-.764-2.624-.5-.645-1.18-.97-2.032-.97zm0-.953c1.22 0 2.192.414 2.922 1.234.74.824 1.11 1.93 1.11 3.313 0 1.376-.37 2.477-1.11 3.298C6.926-.24 5.953.17 4.734.17c-1.23 0-2.214-.41-2.953-1.234C1.04-1.882.673-2.984.673-4.36c0-1.382.367-2.488 1.11-3.312.738-.82 1.722-1.234 2.952-1.234zm0 0"/></symbol><symbol overflow="visible" id="b"><path d="M1.172-8.75H2.36v3.594h4.296V-8.75h1.188V0H6.656v-4.172H2.36V0H1.17zm0 0"/></symbol></defs><g><path fill="#fff" d="M0 0h300v300H0z"/><path d="M171.27 131.652l14.878 1.215" stroke-width="1.2" stroke="#f00" stroke-miterlimit="10" fill="none"/><path d="M186.148 132.867l14.88 1.215M154.29 156.215l8.487-12.28" stroke-width="1.2" stroke="#000" stroke-miterlimit="10" fill="none"/><path d="M162.777 143.934l8.493-12.282" stroke-width="1.2" stroke="#f00" stroke-miterlimit="10" fill="none"/><path d="M166.27 124.652h10v14h-10zm0 0" fill="#fff"/><use xlink:href="#a" x="166.27" y="135.791" fill="#f00"/><path d="M201.027 134.082l12.778 26.984M208.656 133.773l10.223 21.586M218.008 109.52l-16.98 24.562M213.805 161.066l-16.98 24.56M213.805 161.066l29.76 2.426M193.652 187.13l6.387 13.49" stroke-width="1.2" stroke="#000" stroke-miterlimit="10" fill="none"/><path d="M200.04 200.62l6.39 13.493" stroke-width="1.2" stroke="#f00" stroke-miterlimit="10" fill="none"/><path d="M200 184.12l6.39 13.493" stroke-width="1.2" stroke="#000" stroke-miterlimit="10" fill="none"/><path d="M206.39 197.613l6.387 13.496" stroke-width="1.2" stroke="#f00" stroke-miterlimit="10" fill="none"/><path d="M196.824 185.625l-29.758-2.426" stroke-width="1.2" stroke="#000" stroke-miterlimit="10" fill="none"/><path d="M204.605 205.61h10v14h-10zm0 0" fill="#fff"/><use xlink:href="#a" x="204.605" y="216.748" fill="#f00"/><path d="M167.066 183.2l-8.492 12.277" stroke-width="1.2" stroke="#000" stroke-miterlimit="10" fill="none"/><path d="M158.574 195.477l-8.488 12.28" stroke-width="1.2" stroke="#f00" stroke-miterlimit="10" fill="none"/><path d="M167.066 183.2l-12.777-26.985M172.137 177.492l-10.223-21.586" stroke-width="1.2" stroke="#000" stroke-miterlimit="10" fill="none"/><path d="M131.086 200.758h19v14h-19zm0 0" fill="#fff"/><g fill="#f00"><use xlink:href="#b" x="131.086" y="211.896"/><use xlink:href="#a" x="140.109" y="211.896"/></g><path d="M154.29 156.215l-29.763-2.43M124.527 153.785L111.75 126.8M116.902 154.094l-10.222-21.586M107.547 178.348l16.98-24.563M111.75 126.8l-29.758-2.425M81.992 124.375l-6.39-13.492" stroke-width="1.2" stroke="#000" stroke-miterlimit="10" fill="none"/><path d="M75.602 110.883l-6.39-13.492" stroke-width="1.2" stroke="#f00" stroke-miterlimit="10" fill="none"/><path d="M81.992 124.375l-16.984 24.56M86.07 130.824l-13.586 19.65" stroke-width="1.2" stroke="#000" stroke-miterlimit="10" fill="none"/><path d="M50.21 90.39h19v14h-19zm0 0" fill="#fff"/><g fill="#f00"><use xlink:href="#b" x="50.211" y="101.529"/><use xlink:href="#a" x="59.234" y="101.529"/></g><path d="M65.008 148.934l-14.88-1.215" stroke-width="1.2" stroke="#000" stroke-miterlimit="10" fill="none"/><path d="M50.13 147.72l-14.88-1.212" stroke-width="1.2" stroke="#f00" stroke-miterlimit="10" fill="none"/><path d="M65.008 148.934l12.78 26.984" stroke-width="1.2" stroke="#000" stroke-miterlimit="10" fill="none"/><path d="M16.25 139.508h19v14h-19zm0 0" fill="#fff"/><g fill="#f00"><use xlink:href="#b" x="16.25" y="150.646"/><use xlink:href="#a" x="25.273" y="150.646"/></g><path d="M77.79 175.918l29.757 2.43M81.336 169.16l23.805 1.942M243.566 163.492l6.387 13.492" stroke-width="1.2" stroke="#000" stroke-miterlimit="10" fill="none"/><path d="M249.953 176.984l6.39 13.496" stroke-width="1.2" stroke="#f00" stroke-miterlimit="10" fill="none"/><path d="M243.566 163.492l16.98-24.558M239.484 157.043l13.586-19.648" stroke-width="1.2" stroke="#000" stroke-miterlimit="10" fill="none"/><path d="M247.344 183.48h19v14h-19zm0 0" fill="#fff"/><g fill="#f00"><use xlink:href="#a" x="247.344" y="194.619"/><use xlink:href="#b" x="256.789" y="194.619"/></g><path d="M260.547 138.934L247.77 111.95M247.77 111.95l8.488-12.282" stroke-width="1.2" stroke="#000" stroke-miterlimit="10" fill="none"/><path d="M256.258 99.668l8.492-12.277" stroke-width="1.2" stroke="#f00" stroke-miterlimit="10" fill="none"/><path d="M247.77 111.95l-29.762-2.43M244.223 118.707l-23.81-1.94" stroke-width="1.2" stroke="#000" stroke-miterlimit="10" fill="none"/><path d="M255.75 80.39h19v14h-19zm0 0" fill="#fff"/><g fill="#f00"><use xlink:href="#a" x="255.75" y="91.529"/><use xlink:href="#b" x="265.195" y="91.529"/></g></g></svg>
